X:1
T:Title
%%score { ( 1 3 ) | ( 2 4 ) }
L:1/8
M:4/4
K:Ab
V:1 treble nm="Grand Piano"
V:3 treble 
V:2 bass 
V:4 bass 
V:1
 z4 z2[Q:1/4=108] [CE]2 | [CA]2 [CA]2 [Fd]2 [Ec]2 | [EB]4 [EA]2 [=EA]2 | [FA]2 [FA]2 [EG]2 [DF]2 | %4
[M:3/4] [CE]6 |[M:1/4] E2 |[M:4/4] B2 c2 B2 [=Dc]2 | B4[K:bass][K:treble] z4 | %8
 [Ge]2 [EB]2 [=DB]2 [DA]2 |[M:3/4] G6 |[M:1/4] E2 |[M:4/4] E2 B2 B2 c2 | [CA]4 [CE]2 E2 | %13
 E2 d2 d2 e2 |[M:3/4] c6 |[M:1/4] c2 |[M:4/4] f2 e2 d2 c2 | %17
[M:9/8] [FAc]3- [FAc] [FAB]2- [FAB] [FAB]2 |[M:4/4] [FAd]2 [EAc]2 [DGB]3 [DEA] |[M:3/4] [CEA]6 |] %20
V:2
 z4 z2 [A,,A,]2 | [A,,A,]2 [A,,A,]2 [A,,A,]2 [A,,A,]2 | [E,G,]4 [C,A,]2 [C,A,]2 | %3
 [D,A,]2 [D,A,]2 [D,A,]2 [D,A,]2 |[M:3/4] [A,,A,]6 |[M:1/4] [C,A,]2 | %6
[M:4/4] [E,G,E]2 [E,G,E]2 [F,A,=D]2 [B,,A,]2 | [G,E]4 z4 | [B,,B,]2 [B,,G,]2 [B,,F,]2 [B,,B,]2 | %9
[M:3/4] [E,B,E]6 |[M:1/4] [E,G,]2 |[M:4/4] [E,G,]2 [E,G,D]2 [E,G,D]2 [E,G,D]2 | %12
 [A,,A,]4 [A,,A,]2 [C,A,]2 | [E,G,]2 [E,G,E]2[K:treble] [G,B,E]2 [G,B,E]2 |[M:3/4] [A,E]6 | %15
[M:1/4] [A,EA]2 |[M:4/4] [DA]2 [CEA]2 [B,EG]2 [A,EA]2 |[M:9/8][K:bass] D,3- D, D,2- D, D,2 | %18
[M:4/4] B,,2 C,2 E,3 E, |[M:3/4] A,6 |] %20
V:3
 x8 | x8 | x8 | x8 |[M:3/4] x6 |[M:1/4] x2 |[M:4/4] x8 | z2[K:bass] D,2[K:treble] [Ee]2 [Fe]2 | %8
 x8 |[M:3/4] x6 |[M:1/4] x2 |[M:4/4] x8 | x8 | x8 |[M:3/4] x6 |[M:1/4] x2 |[M:4/4] x8 |[M:9/8] x9 | %18
[M:4/4] x8 |[M:3/4] x6 |] %20
V:4
 x8 | x8 | x8 | x8 |[M:3/4] x6 |[M:1/4] x2 |[M:4/4] x8 | E,2 z2 [C,G,]2 [C,=A,]2 | x8 |[M:3/4] x6 | %10
[M:1/4] x2 |[M:4/4] x8 | x8 | x4[K:treble] x4 |[M:3/4] x6 |[M:1/4] x2 |[M:4/4] x8 | %17
[M:9/8][K:bass] x9 |[M:4/4] x8 |[M:3/4] x6 |] %20

